svgs/solid/vacuum.svg

<svg xmlns="http://www.w3.org/2000/svg" viewBox="0 0 640 512"><!--! Font Awesome Pro 6.0.0-alpha3 by @fontawesome - https://fontawesome.com License - https://fontawesome.com/license (Commercial License) --><path d="M143.3 256l-41.13 192H48C21.5 448 0 469.5 0 496C0 504.9 7.125 512 16 512h160C184.9 512 192 504.9 192 496v-32C192 455.1 184.9 448 176 448H167.6l41.14-192H143.3zM640 128c-.125-70.63-57.38-127.9-128-128H301.6c-60 0-112.6 42.47-125.1 101.2L150.1 224h65.5L239 114.6C245.5 85.11 271.5 64.13 301.6 64H512c32.63 .125 59.88 24.75 63.38 57.25c3.5 32.38-18.01 62.25-49.89 69.25C489.2 150.6 437.9 128 384 128c-17.62 0-32 14.38-32 32v165.7c-7.68 2.73-15 6.227-21.64 10.72c-10.21 6.906-19.04 15.73-25.94 25.94C294.1 377.7 288 396.1 288 416c0 52.95 43.05 96 96 96h128c35.38 0 64-28.62 64-64v-128c0-25.62-5.145-51-15.02-74.63C607.1 226.1 640 181.1 640 128zM384 448c-17.64 0-32-14.36-32-32s14.36-32 32-32s32 14.36 32 32S401.6 448 384 448z"/></svg>

<svg xmlns="http://www.w3.org/2000/svg" viewBox="0 0 640 512"><path d="M143.27,256,102.12,448H48A48,48,0,0,0,0,496a16,16,0,0,0,16,16H176a16,16,0,0,0,16-16V464a16,16,0,0,0-16-16h-8.41l41.14-192ZM640,128A128.14,128.14,0,0,0,512,0H301.61C241.64,0,189,42.56,176.44,101.19L150.12,224h65.47L239,114.59A64.33,64.33,0,0,1,301.61,64H512a64,64,0,0,1,13.47,126.51A191.27,191.27,0,0,0,384,128a32,32,0,0,0-32,32V321.62A109.65,109.65,0,0,1,368,320a111.83,111.83,0,0,1,78.14,192H512a64,64,0,0,0,64-64V320a191.27,191.27,0,0,0-15.06-74.65C607.17,226.11,640,181.13,640,128ZM368,352a80,80,0,1,0,80,80A80,80,0,0,0,368,352Zm0,96a16,16,0,1,1,16-16A16,16,0,0,1,368,448Z"/></svg>
